X: 109
T:King's Delight,The. HA.108
M:6/4
L:1/4
Q:150
S:Henry Atkinson's original MS,Hartburn,N'umberland,1694.
O:England
A:Hartburn,Northumberland
N:NB - = are marks above the notescf Playford DM ed 3B(1665) only. also
N:cf Apollo's Banquet,1670..CGP.  
H:1/4
Z:vmp.Chris Partington.Jan.2004
K:D
d2d a2a|(fe)f d2d|(ef)e (ag)a|"-"f3 "-"e3:|!
d2d a2a|(fe)f (de)f|(ga)g (fe)d|!
(ed)e A2A|"S"e2f (gf) e/d/)|"-"e3 d3|]
